src/svg/tag.svg

<svg version="1.2" baseProfile="tiny" xmlns="http://www.w3.org/2000/svg" width="24" height="24" viewBox="0 0 24 24"><path d="M9 4c1.279 0 2.559.488 3.535 1.465l3.465 3.535 5 5-7 7-5.498-5.498c-.037.033-3.037-2.967-3.037-2.967-1.953-1.953-1.953-5.119 0-7.07.976-.977 2.256-1.465 3.535-1.465m0-2c-1.87 0-3.628.729-4.949 2.051-1.322 1.32-2.051 3.078-2.051 4.948s.729 3.628 2.051 4.95l3 3c.107.107.227.201.35.279l5.187 5.186c.391.391.9.586 1.413.586s1.022-.195 1.414-.586l7-7c.78-.781.78-2.047 0-2.828l-5-5-3.45-3.521c-1.337-1.336-3.095-2.065-4.965-2.065zM9 7.498c.829 0 1.5.672 1.5 1.502s-.671 1.498-1.5 1.498-1.5-.668-1.5-1.498.671-1.502 1.5-1.502m0-1c-1.379 0-2.5 1.122-2.5 2.502 0 1.377 1.121 2.498 2.5 2.498s2.5-1.121 2.5-2.498c0-1.38-1.121-2.502-2.5-2.502z"/></svg>

<?xml version="1.0" encoding="iso-8859-1"?>
<!-- Generator: Adobe Illustrator 16.2.1, SVG Export Plug-In . SVG Version: 6.00 Build 0)  -->
<svg version="1.2" baseProfile="tiny" id="Layer_1" xmlns="http://www.w3.org/2000/svg" xmlns:xlink="http://www.w3.org/1999/xlink"
	 x="0px" y="0px" width="24px" height="24px" viewBox="0 0 24 24" xml:space="preserve">
<g>
	<path d="M9,4c1.279,0,2.559,0.488,3.535,1.465L16,9l5,5l-7,7l-5.498-5.498c-0.037,0.033-3.037-2.967-3.037-2.967
		c-1.953-1.953-1.953-5.119,0-7.07C6.441,4.488,7.721,4,9,4 M9,2C7.13,2,5.372,2.729,4.051,4.051C2.729,5.371,2,7.129,2,8.999
		s0.729,3.628,2.051,4.95l3,3c0.107,0.107,0.227,0.201,0.35,0.279l5.187,5.186C12.979,22.805,13.488,23,14.001,23
		s1.022-0.195,1.414-0.586l7-7c0.78-0.781,0.78-2.047,0-2.828l-5-5l-3.45-3.521C12.628,2.729,10.87,2,9,2z"/>
</g>
<g>
	<path d="M9,7.498c0.829,0,1.5,0.672,1.5,1.502S9.829,10.498,9,10.498S7.5,9.83,7.5,9S8.171,7.498,9,7.498 M9,6.498
		C7.621,6.498,6.5,7.62,6.5,9c0,1.377,1.121,2.498,2.5,2.498S11.5,10.377,11.5,9C11.5,7.62,10.379,6.498,9,6.498z"/>
</g>
</svg>
